X:33
T:Patrick's Polka
M:4/4
L:1/8
C:Taz Tarry
S:Copyright B.Tarry, 17th. July 1995
R:Polka
Q:1/4=150
K:D
|:d2GAB2GG|ABAGF2D2|d2GA BGAB|A2c2d4|
G2 BG AB=cA|Bcd2efg2|gfed cdef|e2dcd4:|
|:E2EEF2FF|GFGAB2d2|E2EEF2FF|G2F2E4|
E2EEF2FF|GFGAB2d2|efgf edcd|e2dcd4:|

